X: 8
T: Aide Mandalyo
T: Zeimbekiko
O: Greece
N: The rhythm can be thought of as 4/4+5/4.   Transcribed in a manner
N: that emphasizes the 3-3-2 3-3-2-2 beat that is typically used.
Z: Moshe Braner, Dec. 2001
M: 18/8
L: 1/8
P: (ABA)x3
K: D
|: "D"FF/G/F "D"ED2 "D"F2 "A"FE/F/E "D"DDE "D"FG "A"A2 |
   "D"FF/G/F "D"ED2 "D"F2 "A"FE/F/E "D"DD2 "D"D2 "D"D2 :|
"G"G3 "G"G3 "G"G2 "G"GG/A/G "D"FA2 "D"^GA "D"F2 |
"D"zAB "D"=cdc "D"BA "D"^GAB "D"GA2 "D"A2 "D"F2 |
"G"G3 "G"G3 "G"G2 "G"GG/A/G "D"FA2 "D"^GA "D"F2 |
"A"zA2 "A"A3 "A"ED "A"CDE   "D"CD2 "D"D2 "D"D2 ||


